loleaflet/images/lc_showresolvedannotations.svg

<svg viewBox="0 0 24 24" xmlns="http://www.w3.org/2000/svg"><path d="m6 2a1.0001 1.0001 0 0 0 -1 1v10a1.0001 1.0001 0 0 0 1 1h3v3.585938l.2929688-.292969a1.0001 1.0001 0 0 1 1.4140622 0l.707031.707031 4-4h3.171876l2.707031-2.707031a1.0001 1.0001 0 0 1 .691406-.292969 1.0001 1.0001 0 0 1 .015625 0v-8a1.0001 1.0001 0 0 0 -1-1z" fill="#3a3a38"/><path d="m6 3v10h4v4a1.0001 1.0001 0 0 1 .707031.292969l4.292969-4.292969h4.585938l1.414062-1.414062v-8.585938z" fill="#fafafa"/><path d="m3 5a1.0001 1.0001 0 0 0 -1 1v10a1.0001 1.0001 0 0 0 1 1h3v4a1.0001 1.0001 0 0 0 1.7070312.707031l1.2929688-1.292969-.7070312-.707031a1.0001 1.0001 0 0 1 0-1.414062l1-1a1.0001 1.0001 0 0 1 1.4140622 0l.707031.707031 1-1h3.171876l3.414062-3.414062v-7.585938a1.0001 1.0001 0 0 0 -1-1z" fill="#3a3a38"/><path d="m3 6v10h4v5l1.2929688-1.292969a1.0001 1.0001 0 0 1 0-1.414062l1-1a1.0001 1.0001 0 0 1 1.4140622 0l1.292969-1.292969h4.585938l1.414062-1.414062v-8.585938z" fill="#fafafa"/><path d="m10 18-.9999999 1 3.9999999 4 10-10-1-1-9 9z" fill="#1e8bcd"/></svg>

<?xml version="1.0" encoding="UTF-8" standalone="no"?>
<svg
   xmlns:dc="http://purl.org/dc/elements/1.1/"
   xmlns:cc="http://creativecommons.org/ns#"
   xmlns:rdf="http://www.w3.org/1999/02/22-rdf-syntax-ns#"
   xmlns:svg="http://www.w3.org/2000/svg"
   xmlns="http://www.w3.org/2000/svg"
   xmlns:sodipodi="http://sodipodi.sourceforge.net/DTD/sodipodi-0.dtd"
   xmlns:inkscape="http://www.inkscape.org/namespaces/inkscape"
   viewBox="0 0 24 24"
   version="1.1"
   id="svg12"
   sodipodi:docname="lc_showresolvedannotations.svg"
   inkscape:version="0.92.5 (2060ec1f9f, 2020-04-08)">
  <metadata
     id="metadata18">
    <rdf:RDF>
      <cc:Work
         rdf:about="">
        <dc:format>image/svg+xml</dc:format>
        <dc:type
           rdf:resource="http://purl.org/dc/dcmitype/StillImage" />
        <dc:title></dc:title>
      </cc:Work>
    </rdf:RDF>
  </metadata>
  <defs
     id="defs16" />
  <sodipodi:namedview
     pagecolor="#ffffff"
     bordercolor="#666666"
     borderopacity="1"
     objecttolerance="10"
     gridtolerance="10"
     guidetolerance="10"
     inkscape:pageopacity="0"
     inkscape:pageshadow="2"
     inkscape:window-width="1366"
     inkscape:window-height="700"
     id="namedview14"
     showgrid="false"
     inkscape:zoom="19.666667"
     inkscape:cx="7.579492"
     inkscape:cy="16.887657"
     inkscape:window-x="0"
     inkscape:window-y="0"
     inkscape:window-maximized="1"
     inkscape:current-layer="svg12" />
  <g
     transform="translate(3 -3)"
     id="g6">
    <path
       style="fill:#3a3a38"
       d="M 6 2 A 1.0001 1.0001 0 0 0 5 3 L 5 13 A 1.0001 1.0001 0 0 0 6 14 L 9 14 L 9 17.585938 L 9.2929688 17.292969 A 1.0001 1.0001 0 0 1 10.707031 17.292969 L 11.414062 18 L 15.414062 14 L 18.585938 14 L 21.292969 11.292969 A 1.0001 1.0001 0 0 1 21.984375 11 A 1.0001 1.0001 0 0 1 22 11 L 22 3 A 1.0001 1.0001 0 0 0 21 2 L 6 2 z "
       transform="translate(-3,3)"
       id="path2" />
    <path
       style="fill:#fafafa"
       d="M 6 3 L 6 13 L 10 13 L 10 17 A 1.0001 1.0001 0 0 1 10.707031 17.292969 L 15 13 L 19.585938 13 L 21 11.585938 L 21 3 L 6 3 z "
       transform="translate(-3,3)"
       id="path4" />
  </g>
  <path
     style="fill:#3a3a38"
     d="M 3 5 A 1.0001 1.0001 0 0 0 2 6 L 2 16 A 1.0001 1.0001 0 0 0 3 17 L 6 17 L 6 21 A 1.0001 1.0001 0 0 0 7.7070312 21.707031 L 9 20.414062 L 8.2929688 19.707031 A 1.0001 1.0001 0 0 1 8.2929688 18.292969 L 9.2929688 17.292969 A 1.0001 1.0001 0 0 1 10.707031 17.292969 L 11.414062 18 L 12.414062 17 L 15.585938 17 L 19 13.585938 L 19 6 A 1.0001 1.0001 0 0 0 18 5 L 3 5 z "
     id="path8" />
  <path
     style="fill:#fafafa"
     d="M 3 6 L 3 16 L 7 16 L 7 21 L 8.2929688 19.707031 A 1.0001 1.0001 0 0 1 8.2929688 18.292969 L 9.2929688 17.292969 A 1.0001 1.0001 0 0 1 10.707031 17.292969 L 12 16 L 16.585938 16 L 18 14.585938 L 18 6 L 3 6 z "
     id="path10" />
  <path
     style="fill:#1e8bcd;stroke:none;stroke-width:1px;stroke-linecap:butt;stroke-linejoin:miter;stroke-opacity:1"
     d="M 10,18 9.0000001,19 13,23 23,13 22,12 13,21 Z"
     id="path849"
     inkscape:connector-curvature="0" />
</svg>
